svgs/sharp-solid/mailbox-flag-up.svg

<svg xmlns="http://www.w3.org/2000/svg" viewBox="0 0 576 512"><!--! Font Awesome Pro 6.6.0 by @fontawesome - https://fontawesome.com License - https://fontawesome.com/license (Commercial License) Copyright 2024 Fonticons, Inc. --><path d="M576 208c0-42.6-18.5-81-48-107.3L528 80l0-64-64 0-64 0-64 0 0 48-90.8 0C290.4 95.9 320 148.5 320 208l0 240 256 0 0-240zM384 224l0-16 0-96 0-32 0-16 16 0 64 0 16 0 0 16 0 32 0 16-16 0-48 0 0 80 0 16-32 0zM0 208L0 448l288 0 0-240c0-79.5-64.5-144-144-144S0 128.5 0 208zm64 0c0-8.8 7.2-16 16-16l128 0c8.8 0 16 7.2 16 16s-7.2 16-16 16L80 224c-8.8 0-16-7.2-16-16z"/></svg>

<svg xmlns="http://www.w3.org/2000/svg" viewBox="0 0 576 512"><!--! Font Awesome Pro 6.4.0 by @fontawesome - https://fontawesome.com License - https://fontawesome.com/license (Commercial License) Copyright 2023 Fonticons, Inc. --><path d="M576 208c0-42.6-18.5-81-48-107.3V80 16H464 400 336V64H245.2C290.4 95.9 320 148.5 320 208V448H576V208zM384 224V208 112 80 64h16l64 0h16V80v32 16H464 416v80 16H384zM0 208V448H288V208c0-79.5-64.5-144-144-144S0 128.5 0 208zm64 0c0-8.8 7.2-16 16-16H208c8.8 0 16 7.2 16 16s-7.2 16-16 16H80c-8.8 0-16-7.2-16-16z"/></svg>
